X:198
T:Charming Kitty
M:2/4
L:1/8
N:mis-numberered 196
B:Thompson's Compleat Collection of 200 Favourite Country Dances, vol. 2 (London, 1765)
Z:Transcribed and edited by Flynn Titford-Mock, 2007
Z:abc's:AK/Fiddler's Companion
K:A
c2 (3Ace | d2 (3Bcd | c>BA>G | AEEA | c2 (3Ace | fgae | d2"tr"c2 | B4 :|
|: B2 EG | B(dd)a | (fg)(af) | ec B2 | f(dd)f | (egad) | (3cde EG | A4 :|

